build/svg/cmd/32/sendmail.svg

<?xml version="1.0" encoding="UTF-8" standalone="no"?>
<svg
   xmlns:dc="http://purl.org/dc/elements/1.1/"
   xmlns:cc="http://creativecommons.org/ns#"
   xmlns:rdf="http://www.w3.org/1999/02/22-rdf-syntax-ns#"
   xmlns:svg="http://www.w3.org/2000/svg"
   xmlns="http://www.w3.org/2000/svg"
   xmlns:sodipodi="http://sodipodi.sourceforge.net/DTD/sodipodi-0.dtd"
   xmlns:inkscape="http://www.inkscape.org/namespaces/inkscape"
   viewBox="0 0 32 32"
   version="1.1"
   id="svg4"
   sodipodi:docname="sendmail.svg"
   inkscape:export-filename="/home/jupiter007/Libreoffice yaru theme fullcolor/build/cmd/32/sendmail.png"
   inkscape:export-xdpi="96"
   inkscape:export-ydpi="96"
   inkscape:version="0.92.5 (2060ec1f9f, 2020-04-08)">
  <metadata
     id="metadata10">
    <rdf:RDF>
      <cc:Work
         rdf:about="">
        <dc:format>image/svg+xml</dc:format>
        <dc:type
           rdf:resource="http://purl.org/dc/dcmitype/StillImage" />
      </cc:Work>
    </rdf:RDF>
  </metadata>
  <defs
     id="defs8" />
  <sodipodi:namedview
     pagecolor="#ffffff"
     bordercolor="#666666"
     borderopacity="1"
     objecttolerance="10"
     gridtolerance="10"
     guidetolerance="10"
     inkscape:pageopacity="0"
     inkscape:pageshadow="2"
     inkscape:window-width="1920"
     inkscape:window-height="1011"
     id="namedview6"
     showgrid="true"
     inkscape:zoom="20.85965"
     inkscape:cx="6.087103"
     inkscape:cy="16.536915"
     inkscape:window-x="0"
     inkscape:window-y="32"
     inkscape:window-maximized="1"
     inkscape:current-layer="svg4">
    <inkscape:grid
       type="xygrid"
       id="grid817" />
  </sodipodi:namedview>
  <rect
     ry="1.5"
     y="7"
     x="4"
     height="18"
     width="24"
     id="rect835"
     style="opacity:0.6;fill:#000609;fill-opacity:1;stroke:#000000;stroke-width:2;stroke-linecap:round;stroke-linejoin:round;stroke-miterlimit:4;stroke-dasharray:none;stroke-opacity:1" />
  <rect
     style="opacity:1;fill:#aee3f8;fill-opacity:1;stroke:none;stroke-width:2;stroke-linecap:round;stroke-linejoin:round;stroke-miterlimit:4;stroke-dasharray:none;stroke-opacity:1"
     id="rect833"
     width="24"
     height="18"
     x="4"
     y="7"
     ry="1.5" />
  <path
     style="fill:#ffffff;fill-opacity:1;stroke:none;stroke-width:1.71428454px;stroke-linecap:butt;stroke-linejoin:miter;stroke-opacity:1"
     d="m 15.996681,19.833708 8.574836,-5.172986 5e-6,-1.946438 C 24.571522,11 24.571522,11 22.857237,11 H 9.142961 c -1.714284,0 -1.714284,0 -1.714284,1.714284 l -7.1e-5,1.946438 z"
     id="path839"
     inkscape:connector-curvature="0"
     sodipodi:nodetypes="cccccccc" />
  <path
     style="fill:#ffffff;stroke:none;stroke-width:1px;stroke-linecap:butt;stroke-linejoin:miter;stroke-opacity:1"
     d="M 10.5,10 C 8.5208333,10 7.6169587,10.188432 7.3300781,10.439453 7.1866377,10.564964 7.1092166,10.719515 7.0566406,11.054688 7.0040596,11.389858 7,11.875 7,12.5 v 1.902344 l 8.996094,5.43164 L 25,14.402344 V 12.5 C 25,11.875 24.9959,11.389858 24.94336,11.054688 24.89078,10.719515 24.813363,10.564964 24.669923,10.439453 24.383041,10.188432 23.479167,10 21.5,10 Z"
     id="path834"
     inkscape:connector-curvature="0"
     sodipodi:nodetypes="sccscccsccss" />
  <path
     style="font-style:normal;font-variant:normal;font-weight:normal;font-stretch:normal;font-size:15px;line-height:125%;font-family:Ubuntu;-inkscape-font-specification:Ubuntu;text-align:center;letter-spacing:0px;word-spacing:0px;writing-mode:lr-tb;text-anchor:middle;display:inline;opacity:0.6;fill:#000000;fill-opacity:1;stroke:none;stroke-width:1.71394527"
     d="M 10.5,9 C 8.4791667,9 7.3830409,9.061568 6.6699219,9.685547 6.3133623,9.997536 6.1407835,10.436733 6.0683594,10.898438 5.9959352,11.36014 6,11.875 6,12.5 v 1.298828 L 5.7167969,13.628906 4,12.591797 v 1.617187 L 15,21 12.5,23.5 c 0,0 3,-1.579013 4.5,-2.5 L 28,14.246094 V 12.591797 L 26.283203,13.628906 26,13.798828 V 12.5 C 26,11.875 26.0041,11.36014 25.93164,10.898438 25.85922,10.436733 25.686638,9.997536 25.330078,9.685547 24.616959,9.061568 23.520833,9 21.5,9 Z m 0,1 h 11 c 1.979167,0 2.883041,0.188432 3.169922,0.439453 0.14344,0.125511 0.220862,0.280062 0.273437,0.615235 C 24.995935,11.389858 25,11.875 25,12.5 v 1.902344 L 24.572266,14.660156 15.996094,19.833984 7.4277344,14.660156 7,14.402344 V 12.5 C 7,11.875 7.00406,11.389858 7.056641,11.054688 7.109217,10.719515 7.1866381,10.564964 7.3300785,10.439453 7.6169587,10.188432 8.5208333,10 10.5,10 Z"
     id="path837"
     inkscape:connector-curvature="0"
     sodipodi:nodetypes="sscsccccccsccccscsssssccscccccsccs" />
  <path
     style="color:#000000;font-weight:400;line-height:normal;font-family:sans-serif;font-variant-ligatures:normal;font-variant-position:normal;font-variant-caps:normal;font-variant-numeric:normal;font-variant-alternates:normal;font-feature-settings:normal;text-indent:0;text-align:start;text-decoration:none;text-decoration-line:none;text-decoration-style:solid;text-decoration-color:#000000;text-transform:none;text-orientation:mixed;white-space:normal;shape-padding:0;overflow:visible;isolation:auto;mix-blend-mode:normal;fill:#a7a7f1;fill-opacity:1;stroke-width:1.71428454;marker:none"
     d="m 11,12 v 1 h 10 v -1 z"
     id="path2005"
     inkscape:connector-curvature="0"
     sodipodi:nodetypes="ccccc" />
  <path
     sodipodi:nodetypes="ccccc"
     inkscape:connector-curvature="0"
     id="path848"
     d="m 11,14 v 1 h 10 v -1 z"
     style="color:#000000;font-weight:400;line-height:normal;font-family:sans-serif;font-variant-ligatures:normal;font-variant-position:normal;font-variant-caps:normal;font-variant-numeric:normal;font-variant-alternates:normal;font-feature-settings:normal;text-indent:0;text-align:start;text-decoration:none;text-decoration-line:none;text-decoration-style:solid;text-decoration-color:#000000;text-transform:none;text-orientation:mixed;white-space:normal;shape-padding:0;overflow:visible;isolation:auto;mix-blend-mode:normal;fill:#a7a7f1;fill-opacity:1;stroke-width:1.71428454;marker:none" />
</svg>

<svg xmlns="http://www.w3.org/2000/svg" viewBox="0 0 32 32"><rect ry="1.5" y="7" x="4" height="18" width="24" opacity=".6" fill="#000609" stroke="#000" stroke-width="2" stroke-linecap="round" stroke-linejoin="round"/><rect width="24" height="18" x="4" y="7" ry="1.5" fill="#aee3f8"/><path d="M15.997 19.834l8.575-5.173v-1.947c0-1.714 0-1.714-1.715-1.714H9.143c-1.714 0-1.714 0-1.714 1.714v1.947z" fill="#fff"/><path d="M10.5 10c-1.98 0-2.883.188-3.17.44-.143.125-.22.28-.273.615-.053.335-.057.82-.057 1.445v1.902l8.996 5.432L25 14.402V12.5c0-.625-.004-1.11-.057-1.445-.052-.335-.13-.49-.273-.616-.287-.25-1.19-.439-3.17-.439z" fill="#fff"/><path style="line-height:125%;-inkscape-font-specification:Ubuntu;text-align:center" d="M10.5 9c-2.02 0-3.117.062-3.83.686-.357.312-.53.75-.602 1.212C5.996 11.36 6 11.875 6 12.5v1.299l-.283-.17L4 12.592v1.617L15 21l-2.5 2.5s3-1.579 4.5-2.5l11-6.754v-1.654l-1.717 1.037-.283.17V12.5c0-.625.004-1.14-.068-1.602-.073-.461-.245-.9-.602-1.212C24.617 9.062 23.52 9 21.5 9zm0 1h11c1.98 0 2.883.188 3.17.44.143.125.22.28.273.615.053.335.057.82.057 1.445v1.902l-.428.258-8.576 5.174-8.568-5.174L7 14.402V12.5c0-.625.004-1.11.057-1.445.052-.335.13-.49.273-.616.287-.25 1.19-.439 3.17-.439z" font-weight="400" font-size="15" font-family="Ubuntu" letter-spacing="0" word-spacing="0" text-anchor="middle" opacity=".6"/><path style="line-height:normal;font-variant-ligatures:normal;font-variant-position:normal;font-variant-caps:normal;font-variant-numeric:normal;font-variant-alternates:normal;font-feature-settings:normal;text-indent:0;text-align:start;text-decoration-line:none;text-decoration-style:solid;text-decoration-color:#000;text-transform:none;text-orientation:mixed;white-space:normal;shape-padding:0;isolation:auto;mix-blend-mode:normal;marker:none" d="M11 12v1h10v-1zM11 14v1h10v-1z" color="#000" font-weight="400" font-family="sans-serif" overflow="visible" fill="#a7a7f1"/></svg>
